X: 22329
T: La Valse Des Cerfs-volants
R: waltz
M: 3/4
K: Eminor
"Em" B3 c BG|"D(add9)" A2 F2 G2|"C(add9)" E2 G2 d2|"D7" F2 d2 e2|
"Em" B3 c BG|"Am" E2 F2 G2|"Em/B" E2 F2 G2|"C(add9)" E2 d3c|"D7" c2B3F|
"Em" B3 c BG|"D(add9)" A2 F2 G2|"C(add9)" E2 G2 d2|"D7" F2 d2 e2|
"Em" B3 c BG|"Am" E2 F2 G2|"Em/B" E2 F2 G2|"C(add9)" E2 d3c|"Bm" c2B3F||
"C"EF GE BG|"D7" e2d3e|"Em7" eB B3d|"Bm7" dF F3G|
"C" EF GE BG|"D7" e2d3e|"Em7" ef g3B|"A/C#" BA E3B|
"B7" BA F3G|"C"EF GE BG|"D7" e2d3e|"Em7" eB B3d|"Bm7" dF F3G|
"C" EF GE BG|"D7" e2d3e|"Em7" ef g3B|"A/C#" BA E3B|"" BA F2G2||
"Em" B3c BG|"D(add9)" A2F2G2|"C(add9)" E2G2d2|"D7" F2d2e2|
"Em" B3c BG|"Am" E2F2G2|"Em/B" E2F2G2|"C(add9)" E2d3c|"D7" c2B3F|
"Em" B3c BG|"D(add9)" A2F2G2|"C(add9)" E2G2d2|"D7" F2d2e2|
"Em" B3c BG|"Am" E2F2G2|"Em/B" E2F2G2|"C(add9)" E2d3c|
"Bm" c2B3F|EF GE BG|z2 [F4E4B,4B4]-|[F6E6B,6B6]||

